resources/icons/hicolor/scalable/actions/cm-wireless-offline-symbolic.svg

<?xml version="1.0" encoding="UTF-8"?>
<svg height="16px" viewBox="0 0 16 16" width="16px" xmlns="http://www.w3.org/2000/svg">
    <g fill="#2e3436">
        <path d="m 8 1.992188 c -2.617188 0 -5.238281 0.933593 -7.195312 2.808593 l -0.496094 0.480469 c -0.3984378 0.378906 -0.410156 1.011719 -0.03125 1.410156 c 0.382812 0.398438 1.015625 0.410156 1.414062 0.027344 l 0.5 -0.476562 c 3.085938 -2.953126 8.53125 -2.953126 11.617188 0 l 0.5 0.476562 c 0.398437 0.382812 1.03125 0.371094 1.414062 -0.027344 c 0.378906 -0.398437 0.367188 -1.03125 -0.03125 -1.410156 l -0.496094 -0.480469 c -1.957031 -1.875 -4.578124 -2.808593 -7.195312 -2.808593 z m -0.03125 4.007812 c -1.570312 0.011719 -3.128906 0.628906 -4.207031 1.8125 l -0.5 0.550781 c -0.375 0.40625 -0.347657 1.042969 0.0625 1.414063 c 0.410156 0.371094 1.042969 0.339844 1.414062 -0.070313 l 0.5 -0.542969 c 1.242188 -1.363281 3.992188 -1.492187 5.398438 -0.128906 c 0.121093 -0.023437 0.242187 -0.035156 0.363281 -0.035156 c 0.53125 0 1.039062 0.210938 1.414062 0.585938 l 0.222657 0.222656 c 0.011719 -0.011719 0.023437 -0.019532 0.039062 -0.03125 c 0.40625 -0.371094 0.4375 -1.007813 0.0625 -1.414063 l -0.5 -0.550781 c -1.125 -1.230469 -2.703125 -1.824219 -4.269531 -1.8125 z m 0.03125 4 c -0.511719 0 -1.023438 0.195312 -1.414062 0.585938 c -0.78125 0.78125 -0.78125 2.046874 0 2.828124 s 2.046874 0.78125 2.828124 0 c 0.210938 -0.210937 0.359376 -0.453124 0.457032 -0.714843 l -0.285156 -0.285157 c -0.554688 -0.554687 -0.707032 -1.367187 -0.46875 -2.070312 c -0.335938 -0.226562 -0.726563 -0.34375 -1.117188 -0.34375 z m 0 0" fill-opacity="0.34902"/>
        <path d="m 11 10 c -0.265625 0 -0.519531 0.105469 -0.707031 0.292969 c -0.390625 0.390625 -0.390625 1.023437 0 1.414062 l 1.292969 1.292969 l -1.292969 1.292969 c -0.390625 0.390625 -0.390625 1.023437 0 1.414062 s 1.023437 0.390625 1.414062 0 l 1.292969 -1.292969 l 1.292969 1.292969 c 0.390625 0.390625 1.023437 0.390625 1.414062 0 s 0.390625 -1.023437 0 -1.414062 l -1.292969 -1.292969 l 1.292969 -1.292969 c 0.390625 -0.390625 0.390625 -1.023437 0 -1.414062 c -0.1875 -0.1875 -0.441406 -0.292969 -0.707031 -0.292969 s -0.519531 0.105469 -0.707031 0.292969 l -1.292969 1.292969 l -1.292969 -1.292969 c -0.1875 -0.1875 -0.441406 -0.292969 -0.707031 -0.292969 z m 0 0"/>
    </g>
</svg>

<svg width='16' height='16'
     xmlns:gpa='https://www.gtk.org/grappa'
     gpa:version='1'>
  <path d='M8.00 1.99C5.38 1.99 2.76 2.93 0.80 4.80L0.31 5.28C-0.09 5.66 -0.10 6.29 0.28 6.69C0.66 7.09 1.29 7.10 1.69 6.72L2.19 6.24C5.28 3.29 10.72 3.29 13.81 6.24L14.31 6.72C14.71 7.10 15.34 7.09 15.72 6.69C16.10 6.29 16.09 5.66 15.69 5.28L15.20 4.80C13.24 2.93 10.62 1.99 8.00 1.99ZM7.97 6.00C6.40 6.01 4.84 6.63 3.76 7.81L3.26 8.36C2.89 8.77 2.91 9.41 3.32 9.78C3.73 10.15 4.37 10.12 4.74 9.71L5.24 9.16C6.48 7.80 9.23 7.67 10.64 9.04C10.76 9.01 10.88 9.00 11.00 9.00C11.53 9.00 12.04 9.21 12.41 9.59L12.64 9.81C12.65 9.80 12.66 9.79 12.68 9.78C13.08 9.41 13.11 8.77 12.74 8.36L12.24 7.81C11.11 6.58 9.54 5.99 7.97 6.00ZM8.00 10.00C7.49 10.00 6.98 10.20 6.59 10.59C5.80 11.37 5.80 12.63 6.59 13.41C7.37 14.20 8.63 14.20 9.41 13.41C9.62 13.20 9.77 12.96 9.87 12.70L9.59 12.41C9.03 11.86 8.88 11.05 9.12 10.34C8.78 10.12 8.39 10.00 8.00 10.00ZM8.00 10.00'
stroke='none'
fill='rgb(0,0,0)'
gpa:fill='foreground'/>
  <path d='M11.00 10.00C10.73 10.00 10.48 10.11 10.29 10.29C9.90 10.68 9.90 11.32 10.29 11.71L11.59 13.00L10.29 14.29C9.90 14.68 9.90 15.32 10.29 15.71C10.68 16.10 11.32 16.10 11.71 15.71L13.00 14.41L14.29 15.71C14.68 16.10 15.32 16.10 15.71 15.71C16.10 15.32 16.10 14.68 15.71 14.29L14.41 13.00L15.71 11.71C16.10 11.32 16.10 10.68 15.71 10.29C15.52 10.11 15.27 10.00 15.00 10.00C14.73 10.00 14.48 10.11 14.29 10.29L13.00 11.59L11.71 10.29C11.52 10.11 11.27 10.00 11.00 10.00ZM11.00 10.00'
stroke='none'
fill='rgb(0,0,0)'
gpa:fill='foreground'/>
</svg>
